X: 37678
T: Snuff Wife, The
R: jig
M: 6/8
K: Amixolydian
|:d5/ c BG GB|BB GA Bd GB|dd dc BG GB|AA AB c2 BA|
d5/ c BG GB|BB GA Bd dB|e5/ d cc Bc|AA AB c2 BA:|
[M:6/8]|:Bdd dGd||[M:4/4] Bd dG dd Gd||[M:6/8] cAA BGG||[M:4/4] AA AB c2 BA|
[M:6/8]|Bdd dGd|1 [M:4/4] BG GA Bd dB|e5/ d cc Bc|AA AB c2 BA:|
[2 [M:6/8] BGB Bcd|e2 d cBc|AAA d2 f||
|:ecA ecA|ecA eAe|fdf ece|dcd f2 d|
ecA ecA||ece efg|agf gfe|dcd f2 d:|
|:efg gfg|efg gfg|f2 d edc|dcd f2 d|
efg gfg|ece efg|agf gfe|1 dcd f2 d:|2 [M:9/8] dcd f9/||

